packages/sources/icons/src/vitamix/scales-line.svg

<svg width="16" height="16" viewBox="0 0 16 16" fill="none" xmlns="http://www.w3.org/2000/svg">
<path fill-rule="evenodd" clip-rule="evenodd" d="M8.6667 1.33333V2.18533L12 3.29733L14.4214 2.49067L14.8434 3.75467L12.822 4.42867L14.886 10.1033C14.158 10.8613 13.1334 11.3333 12 11.3333C10.866 11.3333 9.84203 10.8613 9.11403 10.1033L11.1767 4.42867L8.6667 3.59133V12.6667H11.3334V14H4.6667V12.6667H7.33337V3.59133L4.82137 4.42867L6.88537 10.1033C6.15803 10.8613 5.13337 11.3333 4.00003 11.3333C2.86603 11.3333 1.84203 10.8613 1.11403 10.1033L3.1767 4.42867L1.1567 3.75533L1.5787 2.49L4.00003 3.29667L7.33337 2.18533V1.33333H8.6667ZM12 6.06865L10.6947 9.65932C11.086 9.87998 11.5327 9.99998 12 9.99998C12.4667 9.99998 12.9133 9.87998 13.3053 9.65998L12 6.06798V6.06865ZM2.69467 9.65932L4 6.06865V6.06798L5.30534 9.65998C4.91333 9.87998 4.46667 9.99998 4 9.99998C3.53267 9.99998 3.086 9.87998 2.69467 9.65932Z" fill="#001018"/>
</svg>

<svg width="16" height="16" fill="none" xmlns="http://www.w3.org/2000/svg"><path fill-rule="evenodd" clip-rule="evenodd" d="M8.667 1.333v.852L12 3.297l2.421-.806.422 1.264-2.021.674 2.064 5.674A3.99 3.99 0 0 1 12 11.333a3.99 3.99 0 0 1-2.886-1.23l2.063-5.674-2.51-.838v9.076h2.666V14H4.667v-1.333h2.666V3.59l-2.512.838 2.064 5.674A3.988 3.988 0 0 1 4 11.333a3.99 3.99 0 0 1-2.886-1.23L3.177 4.43l-2.02-.674.422-1.265L4 3.297l3.333-1.112v-.852h1.334zM12 6.07l-1.305 3.59c.391.221.838.341 1.305.341.467 0 .913-.12 1.305-.34L12 6.068zM2.695 9.66 4 6.07v-.001L5.305 9.66A2.66 2.66 0 0 1 4 10a2.65 2.65 0 0 1-1.305-.34z" fill="#001018"/></svg>
